Sweet-Rainbow/icons/libreoffice-math.svg

<?xml version="1.0" encoding="UTF-8" standalone="no"?>
<!-- Generator: Gravit.io -->

<svg
   xmlns:dc="http://purl.org/dc/elements/1.1/"
   xmlns:cc="http://creativecommons.org/ns#"
   xmlns:rdf="http://www.w3.org/1999/02/22-rdf-syntax-ns#"
   xmlns:svg="http://www.w3.org/2000/svg"
   xmlns="http://www.w3.org/2000/svg"
   xmlns:sodipodi="http://sodipodi.sourceforge.net/DTD/sodipodi-0.dtd"
   xmlns:inkscape="http://www.inkscape.org/namespaces/inkscape"
   style="isolation:isolate"
   viewBox="0 0 36 36"
   width="48"
   height="48"
   version="1.1"
   id="svg16"
   sodipodi:docname="libreoffice-math.svg"
   inkscape:version="0.92.4 (5da689c313, 2019-01-14)">
  <metadata
     id="metadata22">
    <rdf:RDF>
      <cc:Work
         rdf:about="">
        <dc:format>image/svg+xml</dc:format>
        <dc:type
           rdf:resource="http://purl.org/dc/dcmitype/StillImage" />
        <dc:title></dc:title>
      </cc:Work>
    </rdf:RDF>
  </metadata>
  <defs
     id="defs20" />
  <sodipodi:namedview
     pagecolor="#ffffff"
     bordercolor="#666666"
     borderopacity="1"
     objecttolerance="10"
     gridtolerance="10"
     guidetolerance="10"
     inkscape:pageopacity="0"
     inkscape:pageshadow="2"
     inkscape:window-width="640"
     inkscape:window-height="480"
     id="namedview18"
     showgrid="false"
     inkscape:zoom="29.365243"
     inkscape:cx="25.325443"
     inkscape:cy="32"
     inkscape:current-layer="svg16"
     units="px" />
  <linearGradient
     id="_lgradient_28"
     x1="0"
     y1="0.5"
     x2="1"
     y2="0.5"
     gradientTransform="matrix(45,0,0,45.96,1.5,1.02)"
     gradientUnits="userSpaceOnUse">
    <stop
       offset="0%"
       stop-opacity="1"
       style="stop-color:rgb(117,127,154)"
       id="stop2" />
    <stop
       offset="98.69565217391305%"
       stop-opacity="1"
       style="stop-color:rgb(215,221,232)"
       id="stop4" />
  </linearGradient>
  <linearGradient
     id="_lgradient_29"
     x1="0"
     y1="0.5"
     x2="1"
     y2="0.5"
     gradientTransform="matrix(20,0,0,20.692,10,17.17)"
     gradientUnits="userSpaceOnUse">
    <stop
       offset="0%"
       stop-opacity="1"
       style="stop-color:rgb(117,127,154)"
       id="stop9" />
    <stop
       offset="98.69565217391305%"
       stop-opacity="1"
       style="stop-color:rgb(215,221,232)"
       id="stop11" />
  </linearGradient>
  <g
     id="g831"
     transform="matrix(0.78328982,0,0,0.78328982,-0.79895568,-0.79895568)">
    <path
       id="path7"
       d="m 42.5,31.72 v 0 c 0,-1.104 0.896,-2 2,-2 v 0 c 1.104,0 2,0.896 2,2 v 0 10.26 c 0,2.76 -2.24,5 -5,5 h -35 c -2.76,0 -5,-2.24 -5,-5 V 6.02 c 0,-2.76 2.24,-5 5,-5 h 15.8 c 1.104,0 2.663,0.603 3.48,1.346 l 15.24,13.858 c 0.817,0.743 1.48,0.45 1.48,-0.654 V 8.02 c 0,-1.656 -1.344,-3 -3,-3 h -6.35 v 0 c -1.104,0 -2,-0.896 -2,-2 v 0 c 0,-1.104 0.896,-2 2,-2 v 0 h 8.35 c 2.76,0 5,2.24 5,5 v 15.59 c 0,2.76 -1.658,3.493 -3.7,1.637 L 23.49,5.693 C 23.082,5.321 22.302,5.02 21.75,5.02 H 8.5 c -1.656,0 -3,1.344 -3,3 v 31.96 c 0,1.656 1.344,3 3,3 h 31 c 1.656,0 3,-1.344 3,-3 z"
       inkscape:connector-curvature="0"
       style="fill:url(#_lgradient_28)" />
    <path
       id="path14"
       d="m 13.333,36.195 v 0 c 0,0.92 -0.746,1.667 -1.666,1.667 v 0 C 10.747,37.862 10,37.115 10,36.195 v 0 -14.858 c 0,-2.3 1.32,-2.847 2.946,-1.221 l 6.465,6.465 c 0.325,0.325 0.853,0.325 1.178,0 l 6.465,-6.465 C 28.68,18.49 30,19.037 30,21.337 v 14.858 0 c 0,0.92 -0.747,1.667 -1.667,1.667 v 0 c -0.92,0 -1.666,-0.747 -1.666,-1.667 v 0 -10.975 l -5.488,5.488 c -0.651,0.651 -1.707,0.651 -2.358,0 L 13.333,25.22 Z"
       inkscape:connector-curvature="0"
       style="fill:url(#_lgradient_29)" />
  </g>
</svg>

<?xml version="1.0" encoding="UTF-8" standalone="no"?><!-- Generator: Gravit.io --><svg xmlns="http://www.w3.org/2000/svg" xmlns:xlink="http://www.w3.org/1999/xlink" style="isolation:isolate" viewBox="0 0 48 48" width="48pt" height="48pt"><linearGradient id="_lgradient_28" x1="0" y1="0.5" x2="1" y2="0.5" gradientTransform="matrix(45,0,0,45.96,1.5,1.02)" gradientUnits="userSpaceOnUse"><stop offset="0%" stop-opacity="1" style="stop-color:rgb(117,127,154)"/><stop offset="98.69565217391305%" stop-opacity="1" style="stop-color:rgb(215,221,232)"/></linearGradient><path d=" M 42.5 31.72 L 42.5 31.72 C 42.5 30.616 43.396 29.72 44.5 29.72 L 44.5 29.72 C 45.604 29.72 46.5 30.616 46.5 31.72 L 46.5 31.72 L 46.5 41.98 C 46.5 44.74 44.26 46.98 41.5 46.98 L 6.5 46.98 C 3.74 46.98 1.5 44.74 1.5 41.98 L 1.5 6.02 C 1.5 3.26 3.74 1.02 6.5 1.02 L 22.3 1.02 C 23.404 1.02 24.963 1.623 25.78 2.366 L 41.02 16.224 C 41.837 16.967 42.5 16.674 42.5 15.57 L 42.5 8.02 C 42.5 6.364 41.156 5.02 39.5 5.02 L 33.15 5.02 L 33.15 5.02 C 32.046 5.02 31.15 4.124 31.15 3.02 L 31.15 3.02 C 31.15 1.916 32.046 1.02 33.15 1.02 L 33.15 1.02 L 41.5 1.02 C 44.26 1.02 46.5 3.26 46.5 6.02 L 46.5 21.61 C 46.5 24.37 44.842 25.103 42.8 23.247 L 23.49 5.693 C 23.082 5.321 22.302 5.02 21.75 5.02 L 8.5 5.02 C 6.844 5.02 5.5 6.364 5.5 8.02 L 5.5 39.98 C 5.5 41.636 6.844 42.98 8.5 42.98 L 39.5 42.98 C 41.156 42.98 42.5 41.636 42.5 39.98 L 42.5 31.72 Z " fill="url(#_lgradient_28)"/><linearGradient id="_lgradient_29" x1="0" y1="0.5" x2="1" y2="0.5" gradientTransform="matrix(20,0,0,20.692,10,17.17)" gradientUnits="userSpaceOnUse"><stop offset="0%" stop-opacity="1" style="stop-color:rgb(117,127,154)"/><stop offset="98.69565217391305%" stop-opacity="1" style="stop-color:rgb(215,221,232)"/></linearGradient><path d=" M 13.333 36.195 L 13.333 36.195 C 13.333 37.115 12.587 37.862 11.667 37.862 L 11.667 37.862 C 10.747 37.862 10 37.115 10 36.195 L 10 36.195 L 10 21.337 C 10 19.037 11.32 18.49 12.946 20.116 L 19.411 26.581 C 19.736 26.906 20.264 26.906 20.589 26.581 L 27.054 20.116 C 28.68 18.49 30 19.037 30 21.337 L 30 36.195 L 30 36.195 C 30 37.115 29.253 37.862 28.333 37.862 L 28.333 37.862 C 27.413 37.862 26.667 37.115 26.667 36.195 L 26.667 36.195 L 26.667 25.22 L 21.179 30.708 C 20.528 31.359 19.472 31.359 18.821 30.708 L 13.333 25.22 L 13.333 36.195 Z " fill="url(#_lgradient_29)"/></svg>
